assets/icons/qvision/do_not_touch.svg

<svg width="24" height="24" viewBox="0 0 24 24" fill="none" xmlns="http://www.w3.org/2000/svg">
<g clip-path="url(#clip0_147_6157)">
<path d="M13.0001 10.17L10.5001 7.67V2.25C10.5001 1.56 11.0601 1 11.7501 1C12.4401 1 13.0001 1.56 13.0001 2.25V10.17ZM20.0001 12.75V11V5.25C20.0001 4.56 19.4401 4 18.7501 4C18.0601 4 17.5001 4.56 17.5001 5.25V11H16.5001V3.25C16.5001 2.56 15.9401 2 15.2501 2C14.5601 2 14.0001 2.56 14.0001 3.25V11.17L20.0001 17.17V12.75ZM9.50014 4.25C9.50014 3.56 8.94014 3 8.25014 3C7.58014 3 7.05014 3.53 7.01014 4.18L9.50014 6.67V4.25ZM13.0001 10.17L10.5001 7.67V2.25C10.5001 1.56 11.0601 1 11.7501 1C12.4401 1 13.0001 1.56 13.0001 2.25V10.17ZM20.0001 12.75V11V5.25C20.0001 4.56 19.4401 4 18.7501 4C18.0601 4 17.5001 4.56 17.5001 5.25V11H16.5001V3.25C16.5001 2.56 15.9401 2 15.2501 2C14.5601 2 14.0001 2.56 14.0001 3.25V11.17L20.0001 17.17V12.75ZM9.50014 4.25C9.50014 3.56 8.94014 3 8.25014 3C7.58014 3 7.05014 3.53 7.01014 4.18L9.50014 6.67V4.25ZM21.1901 21.19L2.81014 2.81L1.39014 4.22L7.02014 9.85L7.00014 9.83V14.13C5.89014 13.49 4.42014 12.66 4.40014 12.65C4.23014 12.56 4.06014 12.51 3.86014 12.51C3.60014 12.51 3.36014 12.6 3.16014 12.77C3.12014 12.78 2.00014 13.88 2.00014 13.88L8.80014 21.06C9.37014 21.66 10.1501 22 10.9801 22H17.0001C17.6201 22 18.1801 21.81 18.6501 21.48L18.6301 21.46L19.7801 22.61L21.1901 21.19Z" fill="#323232"/>
</g>
<defs>
<clipPath id="clip0_147_6157">
<rect width="24" height="24" fill="white"/>
</clipPath>
</defs>
</svg>

<svg xmlns="http://www.w3.org/2000/svg" enable-background="new 0 0 24 24" height="24" viewBox="0 0 24 24" width="24"><g><rect fill="none" height="24" width="24"/><path d="M13,10.17l-2.5-2.5V2.25C10.5,1.56,11.06,1,11.75,1S13,1.56,13,2.25V10.17z M20,12.75V11V5.25C20,4.56,19.44,4,18.75,4 S17.5,4.56,17.5,5.25V11h-1V3.25C16.5,2.56,15.94,2,15.25,2S14,2.56,14,3.25v7.92l6,6V12.75z M9.5,4.25C9.5,3.56,8.94,3,8.25,3 c-0.67,0-1.2,0.53-1.24,1.18L9.5,6.67V4.25z M13,10.17l-2.5-2.5V2.25C10.5,1.56,11.06,1,11.75,1S13,1.56,13,2.25V10.17z M20,12.75 V11V5.25C20,4.56,19.44,4,18.75,4S17.5,4.56,17.5,5.25V11h-1V3.25C16.5,2.56,15.94,2,15.25,2S14,2.56,14,3.25v7.92l6,6V12.75z M9.5,4.25C9.5,3.56,8.94,3,8.25,3c-0.67,0-1.2,0.53-1.24,1.18L9.5,6.67V4.25z M21.19,21.19L2.81,2.81L1.39,4.22l5.63,5.63L7,9.83 v4.3c-1.11-0.64-2.58-1.47-2.6-1.48c-0.17-0.09-0.34-0.14-0.54-0.14c-0.26,0-0.5,0.09-0.7,0.26C3.12,12.78,2,13.88,2,13.88 l6.8,7.18c0.57,0.6,1.35,0.94,2.18,0.94H17c0.62,0,1.18-0.19,1.65-0.52l-0.02-0.02l1.15,1.15L21.19,21.19z"/></g></svg>
